Yaru++/actions/16/view-sort-ascending.svg

<svg height="16" width="16" xmlns="http://www.w3.org/2000/svg">
  <path d="m11.5.416a44.122 44.122 0 0 0 -1.334 2.26c-.43.788-.818 1.562-1.166 2.322h2v8.002h1v-8h2a43.07 43.07 0 0 0 -1.18-2.324 50.17 50.17 0 0 0 -1.32-2.26zm-8.5 1.584v3h3v-3zm1 1h1v1h-1zm-1 3v3h3v-3zm1 1h1v1h-1zm-1 3v3h3v-3zm1 1h1v1h-1z" fill="#808080"/>
</svg>

<svg xmlns="http://www.w3.org/2000/svg" width="16" height="16">
 <path fill="#808080" d="M11.5.416a44.122 44.122 0 0 0-1.334 2.26c-.43.788-.818 1.562-1.166 2.322h2V13h1V5h2a43.07 43.07 0 0 0-1.18-2.324A50.17 50.17 0 0 0 11.5.416zM3 2v3h3V2zm1 1h1v1H4zM3 6v3h3V6zm1 1h1v1H4zm-1 3v3h3v-3zm1 1h1v1H4z" color="#000" font-family="sans-serif" font-weight="400" overflow="visible"/>
</svg>
